src/assets/images/headphones.svg

<svg width="68" height="69" viewBox="0 0 68 69" fill="none" xmlns="http://www.w3.org/2000/svg">
<path d="M8.5 51.75V34.5C8.5 27.6375 11.1866 21.0561 15.9688 16.2036C20.751 11.3511 27.237 8.625 34 8.625C40.763 8.625 47.249 11.3511 52.0312 16.2036C56.8134 21.0561 59.5 27.6375 59.5 34.5V51.75" stroke="#FF4D00" stroke-width="4.77324" stroke-linecap="round" stroke-linejoin="round"/>
<path d="M59.5 54.625C59.5 56.15 58.903 57.6125 57.8403 58.6909C56.7776 59.7692 55.3362 60.375 53.8333 60.375H51C49.4971 60.375 48.0558 59.7692 46.9931 58.6909C45.9304 57.6125 45.3333 56.15 45.3333 54.625V46C45.3333 44.475 45.9304 43.0125 46.9931 41.9341C48.0558 40.8558 49.4971 40.25 51 40.25H59.5V54.625ZM8.5 54.625C8.5 56.15 9.09702 57.6125 10.1597 58.6909C11.2224 59.7692 12.6638 60.375 14.1667 60.375H17C18.5029 60.375 19.9442 59.7692 21.0069 58.6909C22.0696 57.6125 22.6667 56.15 22.6667 54.625V46C22.6667 44.475 22.0696 43.0125 21.0069 41.9341C19.9442 40.8558 18.5029 40.25 17 40.25H8.5V54.625Z" stroke="#FF4D00" stroke-width="4.77324" stroke-linecap="round" stroke-linejoin="round"/>
</svg>

<svg width="68" height="69" fill="none" xmlns="http://www.w3.org/2000/svg"><path d="M8.5 51.75V34.5c0-6.863 2.687-13.444 7.469-18.296C20.75 11.35 27.237 8.625 34 8.625c6.763 0 13.249 2.726 18.031 7.579C56.813 21.056 59.5 27.637 59.5 34.5v17.25" stroke="#FF4D00" stroke-width="4.773" stroke-linecap="round" stroke-linejoin="round"/><path d="M59.5 54.625a5.793 5.793 0 0 1-1.66 4.066 5.626 5.626 0 0 1-4.007 1.684H51a5.625 5.625 0 0 1-4.007-1.684 5.793 5.793 0 0 1-1.66-4.066V46c0-1.525.597-2.987 1.66-4.066A5.625 5.625 0 0 1 51 40.25h8.5v14.375Zm-51 0c0 1.525.597 2.987 1.66 4.066a5.626 5.626 0 0 0 4.007 1.684H17a5.625 5.625 0 0 0 4.007-1.684 5.793 5.793 0 0 0 1.66-4.066V46a5.793 5.793 0 0 0-1.66-4.066A5.625 5.625 0 0 0 17 40.25H8.5v14.375Z" stroke="#FF4D00" stroke-width="4.773" stroke-linecap="round" stroke-linejoin="round"/></svg>
